2 Export/Icons/Rounded/Add a Photo.svg

<svg xmlns="http://www.w3.org/2000/svg" xmlns:xlink="http://www.w3.org/1999/xlink" width="24" height="24" viewBox="0 0 24 24">
  <defs>
    <path id="add-a-photo-a" d="M21 6h-3.17l-1.24-1.35A1.99 1.99 0 0 0 15.12 4h-6.4c.17.3.28.63.28 1 0 1.1-.9 2-2 2H6v1c0 1.1-.9 2-2 2-.37 0-.7-.11-1-.28V20c0 1.1.9 2 2 2h16c1.1 0 2-.9 2-2V8c0-1.1-.9-2-2-2zm-8 13c-2.76 0-5-2.24-5-5s2.24-5 5-5 5 2.24 5 5-2.24 5-5 5zm0-2a3 3 0 1 0 0-6 3 3 0 0 0 0 6zM3 8V6H1c-.55 0-1-.45-1-1s.45-1 1-1h2V2c0-.55.45-1 1-1s1 .45 1 1v2h2c.55 0 1 .45 1 1s-.45 1-1 1H5v2c0 .55-.45 1-1 1s-1-.45-1-1z"/>
  </defs>
  <g fill="none" fill-rule="evenodd">
    <polygon points="0 0 24 0 24 24 0 24"/>
    <mask id="add-a-photo-b" fill="#fff">
      <use xlink:href="#add-a-photo-a"/>
    </mask>
    <use fill="#000" xlink:href="#add-a-photo-a"/>
    <g fill="#000" mask="url(#add-a-photo-b)">
      <rect width="24" height="24"/>
    </g>
  </g>
</svg>

<svg xmlns="http://www.w3.org/2000/svg" xmlns:xlink="http://www.w3.org/1999/xlink" width="24" height="24" viewBox="0 0 24 24">
  <defs>
    <path id="add-a-photo-a" d="M21,6 L17.83,6 L16.59,4.65 C16.22,4.24 15.68,4 15.12,4 L8.72,4 C8.89,4.3 9,4.63 9,5 C9,6.1 8.1,7 7,7 L6,7 L6,8 C6,9.1 5.1,10 4,10 C3.63,10 3.3,9.89 3,9.72 L3,20 C3,21.1 3.9,22 5,22 L21,22 C22.1,22 23,21.1 23,20 L23,8 C23,6.9 22.1,6 21,6 Z M13,19 C10.24,19 8,16.76 8,14 C8,11.24 10.24,9 13,9 C15.76,9 18,11.24 18,14 C18,16.76 15.76,19 13,19 Z M13,17 C14.6568542,17 16,15.6568542 16,14 C16,12.3431458 14.6568542,11 13,11 C11.3431458,11 10,12.3431458 10,14 C10,15.6568542 11.3431458,17 13,17 Z M3,8 L3,6 L1,6 C0.45,6 0,5.55 0,5 C0,4.45 0.45,4 1,4 L3,4 L3,2 C3,1.45 3.45,1 4,1 C4.55,1 5,1.45 5,2 L5,4 L7,4 C7.55,4 8,4.45 8,5 C8,5.55 7.55,6 7,6 L5,6 L5,8 C5,8.55 4.55,9 4,9 C3.45,9 3,8.55 3,8 Z"/>
  </defs>
  <g fill="none" fill-rule="evenodd">
    <polygon points="0 0 24 0 24 24 0 24"/>
    <mask id="add-a-photo-b" fill="#fff">
      <use xlink:href="#add-a-photo-a"/>
    </mask>
    <use fill="#000" xlink:href="#add-a-photo-a"/>
    <g fill="#000" mask="url(#add-a-photo-b)">
      <rect width="24" height="24"/>
    </g>
  </g>
</svg>
